X: 360
T:Rings on the Glass
R:reel
C:Peter Holmes
Z:Andrew Le Blanc
M:4/4
L:1/8
K:D
||:f2df afdf| edef edBA| DFAd BABd| edea fede|
f2df afdf| edef edBA| DFAd BABd| edef d4 :||
gagf efed| cdBc A2AF| DFAd BABd| DFAd BA (3Bcd|
gagf efed| cdBc A2AF| DFAd BA (3Bcd| edef d4 :||
<end>
<start>
